22x22/apps/about_kde.svg

<svg xmlns="http://www.w3.org/2000/svg" width="22" height="22" version="1.1">
 <rect fill="#2c9bff" width="20" height="20" x="1" y="1" rx="1" ry="1"/>
 <path fill="#fff" opacity=".2" d="m2 1c-0.554 0-1 0.446-1 1v0.5c0-0.554 0.446-1 1-1h18c0.554 0 1 0.446 1 1v-0.5c0-0.554-0.446-1-1-1h-18z"/>
 <path opacity=".2" d="m2 21.5c-0.554 0-1-0.446-1-1v-0.5c0 0.554 0.446 1 1 1h18c0.554 0 1-0.446 1-1v0.5c0 0.554-0.446 1-1 1h-18z"/>
 <path style="opacity:0.2" d="M 12.015625,3.4746094 9,4 V 14.386719 L 12,14 11.984375,9.3183594 15.523438,14.5 19,14 15,8.6367188 l 4.013672,-4.5 -3.519531,-0.6484376 -3.509766,4.5 z M 5.6738281,6.1269531 c -0.028972,0.00241 -0.056303,0.015109 -0.078125,0.037109 l -1.0351562,1.046875 c -0.04495,0.0453 -0.052447,0.1159219 -0.017578,0.1699219 l 1.25,1.9199218 C 5.5571593,9.7192619 5.3789844,10.178103 5.2636719,10.658203 L 3.1054688,11.1875 C 3.0455625,11.2022 3,11.256359 3,11.318359 V 12 12.681641 c 0,0.062 0.045563,0.116159 0.1054688,0.130859 l 2.1582031,0.529297 c 0.1153125,0.4801 0.2934874,0.938942 0.5292969,1.357422 l -1.25,1.919922 c -0.034868,0.054 -0.027372,0.124623 0.017578,0.169921 l 1.0351562,1.046876 c 0.043643,0.044 0.1113563,0.04763 0.1640625,0.01562 L 7.71875,16.650391 c 0.3843281,0.2239 0.9855094,0.404037 1.4238281,0.523437 l 0.4589844,2.216797 C 9.614313,19.454629 9.6651406,19.5 9.7285156,19.5 H 10.5 11.271484 c 0.06338,0 0.114202,-0.04537 0.126954,-0.109375 l 0.458984,-2.216797 c 0.438319,-0.1194 1.039502,-0.299537 1.423828,-0.523437 l 1.958984,1.201171 c 0.05271,0.032 0.120422,0.02838 0.164063,-0.01562 l 1.035156,-1.046876 c 0.04495,-0.0453 0.05245,-0.115921 0.01758,-0.169921 l -1.041015,-1.59961 -0.128907,0.01953 -0.730468,-1.070312 c -0.746065,1.563963 -2.323843,2.560614 -4.056641,2.5625 -2.4852814,0 -4.5,-2.014719 -4.5,-4.5 C 6.00144,10.323124 6.9698489,8.763073 8.5,8.0039062 V 7.0214844 C 8.2147616,7.1165864 7.9344885,7.2239255 7.71875,7.3496094 L 5.7597656,6.1484375 c -0.026353,-0.016 -0.056965,-0.023891 -0.085937,-0.021484 z"/>
 <path style="fill:#f4f4f7" d="M 12.015625 2.9746094 L 9 3.5 L 9 13.886719 L 12 13.5 L 11.984375 8.8183594 L 15.523438 14 L 19 13.5 L 15 8.1367188 L 19.013672 3.6367188 L 15.494141 2.9882812 L 11.984375 7.4882812 L 12.015625 2.9746094 z M 5.6738281 5.6269531 C 5.6448561 5.6293631 5.6175251 5.6420625 5.5957031 5.6640625 L 4.5605469 6.7109375 C 4.5155969 6.7562375 4.5080997 6.8268594 4.5429688 6.8808594 L 5.7929688 8.8007812 C 5.5571593 9.2192619 5.3789844 9.6781034 5.2636719 10.158203 L 3.1054688 10.6875 C 3.0455625 10.7022 3 10.756359 3 10.818359 L 3 11.5 L 3 12.181641 C 3 12.243641 3.0455629 12.2978 3.1054688 12.3125 L 5.2636719 12.841797 C 5.3789844 13.321897 5.5571593 13.780739 5.7929688 14.199219 L 4.5429688 16.119141 C 4.5081007 16.173141 4.5155969 16.243764 4.5605469 16.289062 L 5.5957031 17.335938 C 5.6393461 17.379938 5.7070594 17.383573 5.7597656 17.351562 L 7.71875 16.150391 C 8.1030781 16.374291 8.7042594 16.554428 9.1425781 16.673828 L 9.6015625 18.890625 C 9.614313 18.954629 9.6651406 19 9.7285156 19 L 10.5 19 L 11.271484 19 C 11.334864 19 11.385686 18.95463 11.398438 18.890625 L 11.857422 16.673828 C 12.295741 16.554428 12.896924 16.374291 13.28125 16.150391 L 15.240234 17.351562 C 15.292944 17.383563 15.360656 17.379937 15.404297 17.335938 L 16.439453 16.289062 C 16.484403 16.243762 16.491901 16.173141 16.457031 16.119141 L 15.416016 14.519531 L 15.287109 14.539062 L 14.556641 13.46875 C 13.810576 15.032713 12.232798 16.029364 10.5 16.03125 C 8.0147186 16.03125 6 14.016531 6 11.53125 C 6.00144 9.823124 6.9698489 8.263073 8.5 7.5039062 L 8.5 6.5214844 C 8.2147616 6.6165864 7.9344885 6.7239255 7.71875 6.8496094 L 5.7597656 5.6484375 C 5.7334126 5.6324375 5.7028006 5.6245465 5.6738281 5.6269531 z"/>
</svg>

<svg xmlns="http://www.w3.org/2000/svg" width="22" height="22"><rect fill="#2c9bff" width="20" height="20" x="1" y="1" rx="1" ry="1"/><path fill="#fff" opacity=".2" d="M2 1c-.554 0-1 .446-1 1v.5c0-.554.446-1 1-1h18c.554 0 1 .446 1 1V2c0-.554-.446-1-1-1H2z"/><path opacity=".2" d="M2 21.5c-.554 0-1-.446-1-1V20c0 .554.446 1 1 1h18c.554 0 1-.446 1-1v.5c0 .554-.446 1-1 1H2z"/><path style="opacity:.2" d="M12.016 3.475 9 4v10.387L12 14l-.016-4.682 3.54 5.182L19 14l-4-5.363 4.014-4.5-3.52-.649-3.51 4.5zM5.674 6.127a.124.124 0 0 0-.078.037L4.56 7.211a.136.136 0 0 0-.018.17l1.25 1.92a5.28 5.28 0 0 0-.53 1.357l-2.158.53a.138.138 0 0 0-.105.13v1.364c0 .062.046.116.105.13l2.159.53c.115.48.293.939.529 1.357l-1.25 1.92a.136.136 0 0 0 .018.17l1.035 1.047a.133.133 0 0 0 .164.016l1.959-1.202c.384.224.985.404 1.424.524l.459 2.217a.13.13 0 0 0 .127.109h1.542a.13.13 0 0 0 .127-.11l.46-2.216c.438-.12 1.039-.3 1.423-.524l1.96 1.202c.052.032.12.028.163-.016l1.035-1.047a.136.136 0 0 0 .018-.17l-1.041-1.6-.129.02-.73-1.07A4.5 4.5 0 0 1 10.5 16.53a4.5 4.5 0 0 1-4.5-4.5 4.5 4.5 0 0 1 2.5-4.027V7.02a4.344 4.344 0 0 0-.781.329l-1.96-1.202a.145.145 0 0 0-.085-.021z"/><path style="fill:#f4f4f7" d="M12.016 2.975 9 3.5v10.387l3-.387-.016-4.682L15.524 14 19 13.5l-4-5.363 4.014-4.5-3.52-.649-3.51 4.5.032-4.513zM5.674 5.627a.124.124 0 0 0-.078.037L4.56 6.711a.136.136 0 0 0-.018.17l1.25 1.92a5.28 5.28 0 0 0-.53 1.357l-2.158.53a.138.138 0 0 0-.105.13v1.364c0 .062.046.116.105.13l2.159.53c.115.48.293.939.529 1.357l-1.25 1.92a.136.136 0 0 0 .018.17l1.035 1.047a.133.133 0 0 0 .164.016l1.959-1.202c.384.224.985.404 1.424.524l.459 2.217a.13.13 0 0 0 .127.109h1.542a.13.13 0 0 0 .127-.11l.46-2.216c.438-.12 1.039-.3 1.423-.524l1.96 1.202c.052.032.12.028.163-.016l1.035-1.047a.136.136 0 0 0 .018-.17l-1.041-1.6-.129.02-.73-1.07A4.5 4.5 0 0 1 10.5 16.03a4.5 4.5 0 0 1-4.5-4.5 4.5 4.5 0 0 1 2.5-4.027V6.52a4.344 4.344 0 0 0-.781.329l-1.96-1.202a.145.145 0 0 0-.085-.021z"/></svg>
